assets/Megaphone/Flat/megaphone_flat.svg

<svg width="32" height="32" viewBox="0 0 32 32" fill="none" xmlns="http://www.w3.org/2000/svg">
<path d="M25.0642 23.4047L23.9155 20.598L22.2011 21.2996L23.3511 24.1097L23.3525 24.113C23.5183 24.5137 23.3281 24.9545 22.9426 25.1096L18.0368 27.1219L18.0342 27.123C17.6335 27.2888 17.1927 27.0987 17.0376 26.7132L15.8855 23.898L14.1711 24.5997L15.3202 27.4074C15.8659 28.7594 17.403 29.3881 18.741 28.8353L18.7425 28.8347L23.6372 26.8268C24.9889 26.281 25.6173 24.7444 25.065 23.4066L25.0642 23.4047ZM8 23.5L9.70824 26.7789C10.3282 27.4289 10.2982 28.4589 9.63824 29.0689C8.98824 29.6789 7.95824 29.6489 7.34824 28.9989L2.43824 23.7889C1.82824 23.1389 1.85824 22.1089 2.50824 21.4989C3.15824 20.8889 4.18824 20.9189 4.79824 21.5689L8 23.5Z" fill="#FFB02E"/>
<path d="M29.2283 15.0788L17.6783 2.82884C16.4083 1.47884 14.1783 1.82887 13.3883 3.50887L4.79834 21.5689L9.76834 26.8389L28.3083 19.3288C30.0183 18.6388 30.4983 16.4288 29.2283 15.0788Z" fill="#F9C23C"/>
</svg>

<svg xmlns="http://www.w3.org/2000/svg" width="32" height="32" fill="none"><path fill="#FFB02E" d="m25.064 23.405-1.148-2.807-1.715.702 1.15 2.81.002.003a.755.755 0 0 1-.41.997l-4.906 2.012-.003.001a.755.755 0 0 1-.996-.41l-1.152-2.815-1.715.702 1.15 2.807a2.607 2.607 0 0 0 3.42 1.428h.002l4.894-2.008a2.607 2.607 0 0 0 1.428-3.42v-.002ZM8 23.5l1.708 3.279c.62.65.59 1.68-.07 2.29-.65.61-1.68.58-2.29-.07l-4.91-5.21c-.61-.65-.58-1.68.07-2.29.65-.61 1.68-.58 2.29.07L8 23.5Z"/><path fill="#F9C23C" d="m29.228 15.079-11.55-12.25c-1.27-1.35-3.5-1-4.29.68l-8.59 18.06 4.97 5.27 18.54-7.51c1.71-.69 2.19-2.9.92-4.25Z"/></svg>
